X:1
T: Lady Lucy Ramsay
T: 8 x 32S3C (MMM II)
P: Lady Lucy Ramsay
C: Nathaniel Gow
C: Arr. T. Traub 9-21-95, mods 8-29-03
K: C
M: 4/4
L: 1/8
|: f|"C"e<gg>a g>ec>a|"C"g>c"F"a>c "G"ef|"C"e<gg>a g>ag>e|"G"f>dg>f "C"e<c c :|
e|"C"G>cE>c "G"d>cd>e|"Am"c<ce>d "F"c<AA>c|"C"G<cE<c "G"d>cd>e|"F"c>A"G"G>F "C"E<CC>c|
"C"G>cE>c "G"d>cd>e|"Am"c<ce>d "F"c<AA>c|"C"G<cE<c "F"F<d"C"E<c|"Dm"D<a"G"g>f "C"e<c c2 |]
